build/img/mastercard-logo.svg

<svg width="38" height="30" viewBox="0 0 38 30" fill="none" xmlns="http://www.w3.org/2000/svg">
<g clip-path="url(#clip0)">
<path d="M6.86777 29.8509V27.8653C6.86777 27.1041 6.41423 26.6077 5.63675 26.6077C5.24801 26.6077 4.82687 26.7401 4.53532 27.1703C4.30855 26.8063 3.9846 26.6077 3.49867 26.6077C3.17472 26.6077 2.85077 26.707 2.59161 27.071V26.6739H1.91131V29.8509H2.59161V28.097C2.59161 27.5344 2.88316 27.2696 3.33669 27.2696C3.79023 27.2696 4.01699 27.5675 4.01699 28.097V29.8509H4.69729V28.097C4.69729 27.5344 5.02124 27.2696 5.44238 27.2696C5.89591 27.2696 6.12268 27.5675 6.12268 28.097V29.8509H6.86777ZM16.9427 26.6739H15.8412V25.7142H15.1609V26.6739H14.5454V27.3027H15.1609V28.7588C15.1609 29.4869 15.4525 29.9171 16.23 29.9171C16.5215 29.9171 16.8455 29.8179 17.0722 29.6855L16.8779 29.0898C16.6835 29.2222 16.4567 29.2553 16.2948 29.2553C15.9708 29.2553 15.8412 29.0567 15.8412 28.7257V27.3027H16.9427V26.6739ZM22.709 26.6077C22.3203 26.6077 22.0611 26.8063 21.8991 27.071V26.6739H21.2188V29.8509H21.8991V28.0639C21.8991 27.5344 22.1259 27.2365 22.547 27.2365C22.6766 27.2365 22.8386 27.2696 22.9682 27.3027L23.1625 26.6408C23.0329 26.6077 22.8386 26.6077 22.709 26.6077ZM13.9947 26.9387C13.6707 26.707 13.2172 26.6077 12.7313 26.6077C11.9538 26.6077 11.4355 27.0048 11.4355 27.6336C11.4355 28.1631 11.8242 28.461 12.5045 28.5603L12.8285 28.5934C13.1848 28.6596 13.3792 28.7588 13.3792 28.9243C13.3792 29.156 13.12 29.3214 12.6665 29.3214C12.213 29.3214 11.8566 29.156 11.6299 28.9905L11.3059 29.52C11.6622 29.7848 12.1482 29.9171 12.6341 29.9171C13.5412 29.9171 14.0595 29.4869 14.0595 28.8912C14.0595 28.3286 13.6384 28.0308 12.9904 27.9315L12.6665 27.8984C12.3749 27.8653 12.1482 27.7991 12.1482 27.6005C12.1482 27.3689 12.3749 27.2365 12.7313 27.2365C13.12 27.2365 13.5088 27.402 13.7031 27.5013L13.9947 26.9387ZM32.0712 26.6077C31.6824 26.6077 31.4233 26.8063 31.2613 27.071V26.6739H30.581V29.8509H31.2613V28.0639C31.2613 27.5344 31.4881 27.2365 31.9092 27.2365C32.0388 27.2365 32.2008 27.2696 32.3304 27.3027L32.5247 26.6408C32.3951 26.6077 32.2008 26.6077 32.0712 26.6077ZM23.3893 28.2624C23.3893 29.2222 24.0372 29.9171 25.0414 29.9171C25.495 29.9171 25.8189 29.8179 26.1429 29.5531L25.8189 28.9905C25.5598 29.1891 25.3006 29.2883 25.009 29.2883C24.4583 29.2883 24.0696 28.8912 24.0696 28.2624C24.0696 27.6667 24.4583 27.2696 25.009 27.2365C25.3006 27.2365 25.5598 27.3358 25.8189 27.5344L26.1429 26.9718C25.8189 26.707 25.495 26.6077 25.0414 26.6077C24.0372 26.6077 23.3893 27.3027 23.3893 28.2624ZM29.674 28.2624V26.6739H28.9937V27.071C28.7669 26.7732 28.4429 26.6077 28.0218 26.6077C27.1471 26.6077 26.4668 27.3027 26.4668 28.2624C26.4668 29.2222 27.1471 29.9171 28.0218 29.9171C28.4753 29.9171 28.7993 29.7517 28.9937 29.4538V29.8509H29.674V28.2624ZM27.1795 28.2624C27.1795 27.6998 27.5359 27.2365 28.119 27.2365C28.6697 27.2365 29.0584 27.6667 29.0584 28.2624C29.0584 28.825 28.6697 29.2883 28.119 29.2883C27.5359 29.2553 27.1795 28.825 27.1795 28.2624ZM19.0483 26.6077C18.1413 26.6077 17.4934 27.2696 17.4934 28.2624C17.4934 29.2553 18.1413 29.9171 19.0807 29.9171C19.5343 29.9171 19.9878 29.7848 20.3441 29.4869L20.0202 28.9905C19.761 29.1891 19.4371 29.3214 19.1131 29.3214C18.692 29.3214 18.2709 29.1229 18.1737 28.5603H20.4737V28.2955C20.5061 27.2696 19.923 26.6077 19.0483 26.6077ZM19.0483 27.2034C19.4695 27.2034 19.761 27.4682 19.8258 27.9646H18.2061C18.2709 27.5344 18.5624 27.2034 19.0483 27.2034ZM35.9262 28.2624V25.4163H35.2459V27.071C35.0191 26.7732 34.6952 26.6077 34.2741 26.6077C33.3994 26.6077 32.7191 27.3027 32.7191 28.2624C32.7191 29.2222 33.3994 29.9171 34.2741 29.9171C34.7276 29.9171 35.0515 29.7517 35.2459 29.4538V29.8509H35.9262V28.2624ZM33.4318 28.2624C33.4318 27.6998 33.7881 27.2365 34.3712 27.2365C34.922 27.2365 35.3107 27.6667 35.3107 28.2624C35.3107 28.825 34.922 29.2883 34.3712 29.2883C33.7881 29.2553 33.4318 28.825 33.4318 28.2624ZM10.6904 28.2624V26.6739H10.0101V27.071C9.78333 26.7732 9.45938 26.6077 9.03824 26.6077C8.16357 26.6077 7.48327 27.3027 7.48327 28.2624C7.48327 29.2222 8.16357 29.9171 9.03824 29.9171C9.49177 29.9171 9.81572 29.7517 10.0101 29.4538V29.8509H10.6904V28.2624ZM8.16357 28.2624C8.16357 27.6998 8.51992 27.2365 9.10303 27.2365C9.65375 27.2365 10.0425 27.6667 10.0425 28.2624C10.0425 28.825 9.65375 29.2883 9.10303 29.2883C8.51992 29.2553 8.16357 28.825 8.16357 28.2624Z" fill="black"/>
<path d="M23.9724 2.54825H13.7679V21.2796H23.9724V2.54825Z" fill="#FF5F00"/>
<path d="M14.4158 11.9139C14.4158 8.10806 16.1652 4.73245 18.854 2.54823C16.8779 0.959709 14.3834 -2.28882e-05 11.6623 -2.28882e-05C5.21562 -2.28882e-05 0 5.32814 0 11.9139C0 18.4996 5.21562 23.8278 11.6623 23.8278C14.3834 23.8278 16.8779 22.8681 18.854 21.2795C16.1652 19.1284 14.4158 15.7197 14.4158 11.9139Z" fill="#EB001B"/>
<path d="M37.7403 11.9139C37.7403 18.4997 32.5247 23.8278 26.0781 23.8278C23.3569 23.8278 20.8625 22.8681 18.8864 21.2796C21.6076 19.0953 23.3245 15.7197 23.3245 11.9139C23.3245 8.10808 21.5752 4.73247 18.8864 2.54825C20.8625 0.959731 23.3569 0 26.0781 0C32.5247 0 37.7403 5.36126 37.7403 11.9139Z" fill="#F79E1B"/>
</g>
<defs>
<clipPath id="clip0">
<rect width="37.7778" height="30" fill="white"/>
</clipPath>
</defs>
</svg>

<?xml version="1.0" encoding="UTF-8"?>
<svg fill="none" viewBox="0 0 38 30" xmlns="http://www.w3.org/2000/svg">
<g clip-path="url(#a)">
<path d="m6.8678 29.851v-1.9856c0-0.7612-0.45354-1.2576-1.231-1.2576-0.38874 0-0.80988 0.1324-1.1014 0.5626-0.22677-0.364-0.55072-0.5626-1.0366-0.5626-0.32395 0-0.6479 0.0993-0.90706 0.4633v-0.3971h-0.6803v3.177h0.6803v-1.7539c0-0.5626 0.29155-0.8274 0.74508-0.8274 0.45354 0 0.6803 0.2979 0.6803 0.8274v1.7539h0.6803v-1.7539c0-0.5626 0.32395-0.8274 0.74509-0.8274 0.45353 0 0.6803 0.2979 0.6803 0.8274v1.7539h0.74509zm10.075-3.177h-1.1015v-0.9597h-0.6803v0.9597h-0.6155v0.6288h0.6155v1.4561c0 0.7281 0.2916 1.1583 1.0691 1.1583 0.2915 0 0.6155-0.0992 0.8422-0.2316l-0.1943-0.5957c-0.1944 0.1324-0.4212 0.1655-0.5831 0.1655-0.324 0-0.4536-0.1986-0.4536-0.5296v-1.423h1.1015v-0.6288zm5.7663-0.0662c-0.3887 0-0.6479 0.1986-0.8099 0.4633v-0.3971h-0.6803v3.177h0.6803v-1.787c0-0.5295 0.2268-0.8274 0.6479-0.8274 0.1296 0 0.2916 0.0331 0.4212 0.0662l0.1943-0.6619c-0.1296-0.0331-0.3239-0.0331-0.4535-0.0331zm-8.7143 0.331c-0.324-0.2317-0.7775-0.331-1.2634-0.331-0.7775 0-1.2958 0.3971-1.2958 1.0259 0 0.5295 0.3887 0.8274 1.069 0.9267l0.324 0.0331c0.3563 0.0662 0.5507 0.1654 0.5507 0.3309 0 0.2317-0.2592 0.3971-0.7127 0.3971s-0.8099-0.1654-1.0366-0.3309l-0.324 0.5295c0.3563 0.2648 0.8423 0.3971 1.3282 0.3971 0.9071 0 1.4254-0.4302 1.4254-1.0259 0-0.5626-0.4211-0.8604-1.0691-0.9597l-0.3239-0.0331c-0.2916-0.0331-0.5183-0.0993-0.5183-0.2979 0-0.2316 0.2267-0.364 0.5831-0.364 0.3887 0 0.7775 0.1655 0.9718 0.2648l0.2916-0.5626zm18.076-0.331c-0.3888 0-0.6479 0.1986-0.8099 0.4633v-0.3971h-0.6803v3.177h0.6803v-1.787c0-0.5295 0.2268-0.8274 0.6479-0.8274 0.1296 0 0.2916 0.0331 0.4212 0.0662l0.1943-0.6619c-0.1296-0.0331-0.3239-0.0331-0.4535-0.0331zm-8.6819 1.6547c0 0.9598 0.6479 1.6547 1.6521 1.6547 0.4536 0 0.7775-0.0992 1.1015-0.364l-0.324-0.5626c-0.2591 0.1986-0.5183 0.2978-0.8099 0.2978-0.5507 0-0.9394-0.3971-0.9394-1.0259 0-0.5957 0.3887-0.9928 0.9394-1.0259 0.2916 0 0.5508 0.0993 0.8099 0.2979l0.324-0.5626c-0.324-0.2648-0.6479-0.3641-1.1015-0.3641-1.0042 0-1.6521 0.695-1.6521 1.6547zm6.2847 0v-1.5885h-0.6803v0.3971c-0.2268-0.2978-0.5508-0.4633-0.9719-0.4633-0.8747 0-1.555 0.695-1.555 1.6547 0 0.9598 0.6803 1.6547 1.555 1.6547 0.4535 0 0.7775-0.1654 0.9719-0.4633v0.3971h0.6803v-1.5885zm-2.4945 0c0-0.5626 0.3564-1.0259 0.9395-1.0259 0.5507 0 0.9394 0.4302 0.9394 1.0259 0 0.5626-0.3887 1.0259-0.9394 1.0259-0.5831-0.033-0.9395-0.4633-0.9395-1.0259zm-8.1312-1.6547c-0.907 0-1.5549 0.6619-1.5549 1.6547 0 0.9929 0.6479 1.6547 1.5873 1.6547 0.4536 0 0.9071-0.1323 1.2634-0.4302l-0.3239-0.4964c-0.2592 0.1986-0.5831 0.3309-0.9071 0.3309-0.4211 0-0.8422-0.1985-0.9394-0.7611h2.3v-0.2648c0.0324-1.0259-0.5507-1.6878-1.4254-1.6878zm0 0.5957c0.4212 0 0.7127 0.2648 0.7775 0.7612h-1.6197c0.0648-0.4302 0.3563-0.7612 0.8422-0.7612zm16.878 1.059v-2.8461h-0.6803v1.6547c-0.2268-0.2978-0.5507-0.4633-0.9718-0.4633-0.8747 0-1.555 0.695-1.555 1.6547 0 0.9598 0.6803 1.6547 1.555 1.6547 0.4535 0 0.7774-0.1654 0.9718-0.4633v0.3971h0.6803v-1.5885zm-2.4944 0c0-0.5626 0.3563-1.0259 0.9394-1.0259 0.5508 0 0.9395 0.4302 0.9395 1.0259 0 0.5626-0.3887 1.0259-0.9395 1.0259-0.5831-0.033-0.9394-0.4633-0.9394-1.0259zm-22.741 0v-1.5885h-0.6803v0.3971c-0.22677-0.2978-0.55072-0.4633-0.97186-0.4633-0.87467 0-1.555 0.695-1.555 1.6547 0 0.9598 0.6803 1.6547 1.555 1.6547 0.45353 0 0.77748-0.1654 0.97186-0.4633v0.3971h0.6803v-1.5885zm-2.5268 0c0-0.5626 0.35635-1.0259 0.93946-1.0259 0.55072 0 0.93947 0.4302 0.93947 1.0259 0 0.5626-0.38875 1.0259-0.93947 1.0259-0.58311-0.033-0.93946-0.4633-0.93946-1.0259z" fill="#000"/>
<path d="m23.972 2.5482h-10.204v18.731h10.204v-18.731z" fill="#FF5F00"/>
<path d="m14.416 11.914c0-3.8058 1.7494-7.1814 4.4382-9.3657-1.9761-1.5885-4.4706-2.5483-7.1917-2.5483-6.4467 0-11.662 5.3282-11.662 11.914 0 6.5857 5.2156 11.914 11.662 11.914 2.7211 0 5.2156-0.9597 7.1917-2.5483-2.6888-2.1511-4.4382-5.5598-4.4382-9.3656z" fill="#EB001B"/>
<path d="m37.74 11.914c0 6.5858-5.2156 11.914-11.662 11.914-2.7212 0-5.2156-0.9597-7.1917-2.5482 2.7212-2.1843 4.4381-5.5599 4.4381-9.3657 0-3.8058-1.7493-7.1814-4.4381-9.3656 1.9761-1.5885 4.4705-2.5482 7.1917-2.5482 6.4466 0 11.662 5.3613 11.662 11.914z" fill="#F79E1B"/>
</g>
<defs>
<clipPath id="a">
<rect width="37.778" height="30" fill="#fff"/>
</clipPath>
</defs>
</svg>
